svg/device/projector_screen_fill.svg

<svg xmlns="http://www.w3.org/2000/svg" width="24" height="24" viewBox="0 0 24 24"><g fill="none" fill-rule="evenodd"><path d="M24,0 L24,24 L0,24 L0,0 L24,0 Z M12.5935,23.2578 L12.5819,23.2595 L12.5109,23.295 L12.4919,23.2987 L12.4767,23.295 L12.4057,23.2595 C12.3958,23.2564 12.387,23.259 12.3821,23.2649 L12.378,23.2758 L12.3609,23.7031 L12.3659,23.7235 L12.3769,23.7357 L12.4805,23.8097 L12.4953,23.8136 L12.5071,23.8097 L12.6107,23.7357 L12.6233,23.7197 L12.6267,23.7031 L12.6096,23.2758 C12.6076,23.2657 12.601,23.2593 12.5935,23.2578 Z M12.8584,23.1453 L12.8445,23.1473 L12.6598,23.2397 L12.6499,23.2499 L12.6472,23.2611 L12.6651,23.6906 L12.6699,23.7034 L12.6784,23.7105 L12.8793,23.8032 C12.8914,23.8069 12.9022,23.803 12.9078,23.7952 L12.9118,23.7812 L12.8777,23.1665 C12.8753,23.1546 12.8674,23.147 12.8584,23.1453 Z M12.143,23.1473 C12.1332,23.1424 12.1222,23.1453 12.1156,23.1526 L12.1099,23.1665 L12.0758,23.7812 C12.0751,23.7927 12.0828,23.8019 12.0926,23.8046 L12.1083,23.8032 L12.3092,23.7105 L12.3186,23.7024 L12.3225,23.6906 L12.3404,23.2611 L12.3372,23.2485 L12.3278,23.2397 L12.143,23.1473 Z"/><path fill="#09244B" d="M20,2 C20.51285,2 20.9355092,2.38604429 20.9932725,2.88337975 L21,3 L21,6 C21,6.51283143 20.613973,6.93550653 20.1166239,6.9932722 L20,7 L19,7 L19,14 L20,14 C20.5523,14 21,14.4477 21,15 C21,15.51285 20.613973,15.9355092 20.1166239,15.9932725 L20,16 L13,16 L13,17.208 C13.883,17.5938 14.5,18.4748 14.5,19.5 C14.5,20.8807 13.3807,22 12,22 C10.6193,22 9.5,20.8807 9.5,19.5 C9.5,18.5351059 10.0465467,17.697946 10.8470092,17.2811514 L11,17.208 L11,16 L4,16 C3.44772,16 3,15.5523 3,15 C3,14.48715 3.38604429,14.0644908 3.88337975,14.0067275 L4,14 L5,14 L5,7 L4,7 C3.48716857,7 3.06449347,6.61395571 3.0067278,6.11662025 L3,6 L3,3 C3,2.48716857 3.38604429,2.06449347 3.88337975,2.0067278 L4,2 L20,2 Z M12,19 C11.7239,19 11.5,19.2239 11.5,19.5 C11.5,19.7761 11.7239,20 12,20 C12.2761,20 12.5,19.7761 12.5,19.5 C12.5,19.2239 12.2761,19 12,19 Z M19,4 L5,4 L5,5 L19,5 L19,4 Z"/></g></svg>

<svg xmlns="http://www.w3.org/2000/svg" width="24" height="24"><g fill="none" fill-rule="evenodd"><path d="M24 0v24H0V0zM12.594 23.258l-.012.002-.071.035-.02.004-.014-.004-.071-.036c-.01-.003-.019 0-.024.006l-.004.01-.017.428.005.02.01.013.104.074.015.004.012-.004.104-.074.012-.016.004-.017-.017-.427c-.002-.01-.009-.017-.016-.018m.264-.113-.014.002-.184.093-.01.01-.003.011.018.43.005.012.008.008.201.092c.012.004.023 0 .029-.008l.004-.014-.034-.614c-.003-.012-.01-.02-.02-.022m-.715.002a.023.023 0 0 0-.027.006l-.006.014-.034.614c0 .012.007.02.017.024l.015-.002.201-.093.01-.008.003-.011.018-.43-.003-.012-.01-.01z"/><path fill="#09244B" d="M20 2a1 1 0 0 1 .993.883L21 3v3a1 1 0 0 1-.883.993L20 7h-1v7h1a1 1 0 0 1 .117 1.993L20 16h-7v1.208a2.5 2.5 0 1 1-2.153.073l.153-.073V16H4a1 1 0 0 1-.117-1.993L4 14h1V7H4a1 1 0 0 1-.993-.883L3 6V3a1 1 0 0 1 .883-.993L4 2zm-8 17a.5.5 0 1 0 0 1 .5.5 0 0 0 0-1m7-15H5v1h14z"/></g></svg>
